X:1
T:Title
%%score { ( 1 3 ) | 2 }
L:1/8
M:6/4
K:Db
V:1 treble nm="Grand Piano"
V:3 treble 
V:2 bass 
V:1
 z6 z4[Q:1/4=126] D2 | F4 F2 [CA]2 [CG]2 C2 | E2 D4- D4 F2 | [CA]2 [CA]2 [CA]2 [EA]4 [EG]2 | %4
[M:5/4] [DF]2- [DF]2- [DF]6 |[M:1/4] [FA]2 |[M:6/4] [GB]4 [GB]2 [Bd]2 [Ac]2 [GB]2 | %7
 [FA]2 F4- F4 F2 | E4 [=Gd]2 [Gd]2 [Gc]2 [GB]2 |[M:5/4] A2- A2- A6 |[M:1/4] A2 | %11
[M:6/4] [Fd]2 [Fd]2 [Fd]2 d2 c2 B2 | [FA]2 [DF]4- [DF]4 [FA]2 | A2 c2 B2 A4 G2 | %14
[M:5/4] F2- F2- F6 |[M:1/4] [FA]2 |[M:6/4] [Fd]2 [Fd]2 [Fd]2 d2 c2 B2 | %17
 [FA]2 [GB]2 [FA]2 [A,DF]4 [DFA]2 | %18
 [CGA]2 [EGc]2 [CGB]2 [CEA]2[K:bass] [G,CE]2 [A,CF]2[Q:1/4=124][Q:1/4=122][Q:1/4=120][Q:1/4=118][Q:1/4=116][Q:1/4=114][Q:1/4=112][Q:1/4=110][Q:1/4=108][Q:1/4=106][Q:1/4=104][Q:1/4=102][Q:1/4=100][Q:1/4=98][Q:1/4=96] | %19
[M:5/4] [F,D]2- [F,D]2- [F,D]6 |] %20
V:2
 z6 z4 [D,F,]2 | [D,A,D]4 [D,A,D]2 [A,,A,]2 [A,,E,]2 [A,,G,]2 | %2
 [D,G,C]2 [D,F,]4- [D,F,]4 [D,A,D]2 | [A,,A,]2 [A,,E,]2 [A,,E,]2 [C,A,]4 [C,A,]2 | %4
[M:5/4] [D,A,]2- [D,A,]2- [D,A,]6 |[M:1/4] [D,D]2 |[M:6/4] [G,D]4 [G,D]2 [G,B,]2 [G,C]2 [G,D]2 | %7
 [D,D]2 [D,A,D]4- [D,A,D]4 [D,A,D]2 | [E,=G,D]4 [E,B,]2 [E,B,]2 [E,E]2 [E,D]2 | %9
[M:5/4][K:treble] [A,C]2- [A,C]2- [A,C]6 |[M:1/4] [A,CG]2 | %11
[M:6/4][K:bass] [D,A,]2 [D,A,]2 [D,A,]2 [G,B,G]2 [G,CG]2 [G,DG]2 | [D,D]2 [D,A,]4- [D,A,]4 [D,D]2 | %13
 [A,CG]2 [A,EG]2 [A,CG]2 [A,DF]4 [A,CE]2 |[M:5/4][K:bass] [D,A,D]2- [D,A,D]2- [D,A,D]6 | %15
[M:1/4] [D,D]2 |[M:6/4] [D,A,]2 [D,A,]2 [D,A,]2 [G,B,G]2 [G,CG]2 [G,DG]2 | %17
 [D,D]2 [D,D]2 [D,D]2 D,4 D,2 | A,2 A,2 A,2 A,2 A,,2 A,,2 |[M:5/4] D,2- D,2- D,6 |] %20
V:3
 x12 | x12 | x12 | x12 |[M:5/4] x10 |[M:1/4] x2 |[M:6/4] x12 | x12 | x12 |[M:5/4] z2 z4 G4 | %10
[M:1/4] x2 |[M:6/4] x12 | x12 | x12 |[M:5/4] x10 |[M:1/4] x2 |[M:6/4] x12 | x12 | x8[K:bass] x4 | %19
[M:5/4] x10 |] %20

